view/frontend/web/svg/flags/gu.svg

<svg width="24" height="24" viewbox="0 0 20 15" viewBox="0 0 20 15" fill="none" xmlns="http://www.w3.org/2000/svg">
<g clip-path="url(#clip0_270_61007)">
<rect width="20" height="15" fill="white"/>
<path fill-rule="evenodd" clip-rule="evenodd" d="M0 0H20V15H0V0Z" fill="#C51918"/>
<path fill-rule="evenodd" clip-rule="evenodd" d="M2 2H18V13H2V2Z" fill="#4564F9"/>
<path d="M2.625 2.625H17.375V12.375H2.625V2.625Z" stroke="#CBDAFF" stroke-opacity="0.12" stroke-width="1.25"/>
<mask id="mask0_270_61007" style="mask-type:luminance" maskUnits="userSpaceOnUse" x="2" y="2" width="16" height="11">
<path fill-rule="evenodd" clip-rule="evenodd" d="M2 2H18V13H2V2Z" fill="white"/>
<path d="M2.625 2.625H17.375V12.375H2.625V2.625Z" stroke="white" stroke-width="1.25"/>
</mask>
<g mask="url(#mask0_270_61007)">
<path opacity="0.4" d="M10.25 3.00005L10.656 2.18984L10.2405 1.98162L9.82899 2.19753L10.25 3.00005ZM10.25 3.00005C10.656 2.18984 10.6563 2.18998 10.6566 2.19013L10.6572 2.19045L10.6587 2.19121L10.6627 2.19319L10.674 2.19899L10.7102 2.21792C10.7402 2.23378 10.7817 2.25614 10.8329 2.28488C10.9353 2.34228 11.0775 2.42554 11.2465 2.5337C11.5825 2.74885 12.0334 3.06847 12.488 3.48602C13.374 4.29973 14.4062 5.61006 14.4062 7.34126C14.4062 9.05624 13.39 10.4404 12.5209 11.3235C12.0729 11.7788 11.628 12.1377 11.2959 12.3827C11.1291 12.5058 10.9888 12.6017 10.888 12.668C10.8376 12.7012 10.797 12.7271 10.7677 12.7454L10.7326 12.7672L10.7217 12.7738L10.7181 12.7761L10.7167 12.7769L10.7161 12.7772C10.7159 12.7774 10.7156 12.7775 10.25 12M10.25 3.00005C9.82899 2.19753 9.82873 2.19766 9.82845 2.19781L9.82784 2.19813L9.82639 2.19889L9.8226 2.2009L9.8115 2.20684L9.77576 2.22632C9.74612 2.24267 9.70505 2.26575 9.65418 2.29539C9.55255 2.35459 9.41112 2.44034 9.24309 2.55121C8.90879 2.77178 8.46014 3.09772 8.00777 3.51851C7.1309 4.33416 6.09375 5.64452 6.09375 7.34126C6.09375 9.02125 7.11427 10.406 7.97543 11.2912C8.42151 11.7497 8.86446 12.1148 9.19497 12.3652C9.36098 12.491 9.50057 12.5892 9.60062 12.6573C9.6507 12.6914 9.69101 12.718 9.71994 12.7367L9.75465 12.7591L9.76526 12.7658L9.76881 12.768L9.77014 12.7688L9.77069 12.7692C9.77093 12.7693 9.77117 12.7695 10.25 12M10.25 12L10.7156 12.7775L10.2409 13.0618L9.77117 12.7695L10.25 12Z" fill="#CCE0E5" stroke="#6D87FB" stroke-width="1.8125"/>
<path d="M10.25 3.77299L10.6791 2.97476L10.24 2.73875L9.80559 2.98319L10.25 3.77299ZM10.25 3.77299C10.6791 2.97476 10.6794 2.97491 10.6796 2.97506L10.6803 2.9754L10.6817 2.97618L10.6853 2.97811L10.6951 2.98351L10.7253 3.00041C10.7499 3.01438 10.7834 3.03378 10.8245 3.05851C10.9066 3.10789 11.0198 3.17894 11.1536 3.27087C11.4198 3.45364 11.7764 3.72476 12.136 4.07905C12.8384 4.77095 13.6562 5.88563 13.6562 7.35478C13.6562 8.80905 12.8524 9.98244 12.1678 10.7286C11.815 11.1131 11.4648 11.4161 11.2031 11.6233C11.0715 11.7274 10.9605 11.8088 10.8802 11.8655C10.8401 11.8938 10.8074 11.9161 10.7836 11.9321L10.7547 11.9514L10.7454 11.9574L10.7421 11.9596L10.7408 11.9604L10.7403 11.9608C10.74 11.9609 10.7398 11.9611 10.25 11.1986M10.25 3.77299C9.80559 2.98319 9.80532 2.98334 9.80505 2.9835L9.80445 2.98384L9.80308 2.98461L9.79965 2.98656L9.79007 2.99205L9.76043 3.00938C9.73618 3.02373 9.70307 3.0437 9.66236 3.06913C9.58105 3.11994 9.46879 3.19296 9.33586 3.28704C9.07158 3.47407 8.7173 3.75013 8.35992 4.10669C7.66618 4.79884 6.84375 5.91337 6.84375 7.35478C6.84375 8.78076 7.65159 9.95461 8.32874 10.7012C8.67958 11.088 9.02781 11.3959 9.2879 11.6072C9.41862 11.7134 9.52886 11.7967 9.60841 11.8547C9.64824 11.8838 9.68051 11.9066 9.70397 11.923L9.73245 11.9426L9.74147 11.9487L9.74463 11.9508L9.74586 11.9517L9.7464 11.952C9.74664 11.9522 9.74687 11.9523 10.25 11.1986M10.25 11.1986L10.7398 11.9611L10.2405 12.2818L9.74687 11.9523L10.25 11.1986Z" fill="#CCE0E5"/>
<path d="M10.25 3.77299L10.6791 2.97476L10.24 2.73875L9.80559 2.98319L10.25 3.77299ZM10.25 3.77299C10.6791 2.97476 10.6794 2.97491 10.6796 2.97506L10.6803 2.9754L10.6817 2.97618L10.6853 2.97811L10.6951 2.98351L10.7253 3.00041C10.7499 3.01438 10.7834 3.03378 10.8245 3.05851C10.9066 3.10789 11.0198 3.17894 11.1536 3.27087C11.4198 3.45364 11.7764 3.72476 12.136 4.07905C12.8384 4.77095 13.6562 5.88563 13.6562 7.35478C13.6562 8.80905 12.8524 9.98244 12.1678 10.7286C11.815 11.1131 11.4648 11.4161 11.2031 11.6233C11.0715 11.7274 10.9605 11.8088 10.8802 11.8655C10.8401 11.8938 10.8074 11.9161 10.7836 11.9321L10.7547 11.9514L10.7454 11.9574L10.7421 11.9596L10.7408 11.9604L10.7403 11.9608C10.74 11.9609 10.7398 11.9611 10.25 11.1986M10.25 3.77299C9.80559 2.98319 9.80532 2.98334 9.80505 2.9835L9.80445 2.98384L9.80308 2.98461L9.79965 2.98656L9.79007 2.99205L9.76043 3.00938C9.73618 3.02373 9.70307 3.0437 9.66236 3.06913C9.58105 3.11994 9.46879 3.19296 9.33586 3.28704C9.07158 3.47407 8.7173 3.75013 8.35992 4.10669C7.66618 4.79884 6.84375 5.91337 6.84375 7.35478C6.84375 8.78076 7.65159 9.95461 8.32874 10.7012C8.67958 11.088 9.02781 11.3959 9.2879 11.6072C9.41862 11.7134 9.52886 11.7967 9.60841 11.8547C9.64824 11.8838 9.68051 11.9066 9.70397 11.923L9.73245 11.9426L9.74147 11.9487L9.74463 11.9508L9.74586 11.9517L9.7464 11.952C9.74664 11.9522 9.74687 11.9523 10.25 11.1986M10.25 11.1986L10.7398 11.9611L10.2405 12.2818L9.74687 11.9523L10.25 11.1986Z" stroke="#C1C9F1" stroke-opacity="0.748217" stroke-width="1.8125"/>
<path d="M10.25 3.77299L10.6791 2.97476L10.24 2.73875L9.80559 2.98319L10.25 3.77299ZM10.25 3.77299C10.6791 2.97476 10.6794 2.97491 10.6796 2.97506L10.6803 2.9754L10.6817 2.97618L10.6853 2.97811L10.6951 2.98351L10.7253 3.00041C10.7499 3.01438 10.7834 3.03378 10.8245 3.05851C10.9066 3.10789 11.0198 3.17894 11.1536 3.27087C11.4198 3.45364 11.7764 3.72476 12.136 4.07905C12.8384 4.77095 13.6562 5.88563 13.6562 7.35478C13.6562 8.80905 12.8524 9.98244 12.1678 10.7286C11.815 11.1131 11.4648 11.4161 11.2031 11.6233C11.0715 11.7274 10.9605 11.8088 10.8802 11.8655C10.8401 11.8938 10.8074 11.9161 10.7836 11.9321L10.7547 11.9514L10.7454 11.9574L10.7421 11.9596L10.7408 11.9604L10.7403 11.9608C10.74 11.9609 10.7398 11.9611 10.25 11.1986M10.25 3.77299C9.80559 2.98319 9.80532 2.98334 9.80505 2.9835L9.80445 2.98384L9.80308 2.98461L9.79965 2.98656L9.79007 2.99205L9.76043 3.00938C9.73618 3.02373 9.70307 3.0437 9.66236 3.06913C9.58105 3.11994 9.46879 3.19296 9.33586 3.28704C9.07158 3.47407 8.7173 3.75013 8.35992 4.10669C7.66618 4.79884 6.84375 5.91337 6.84375 7.35478C6.84375 8.78076 7.65159 9.95461 8.32874 10.7012C8.67958 11.088 9.02781 11.3959 9.2879 11.6072C9.41862 11.7134 9.52886 11.7967 9.60841 11.8547C9.64824 11.8838 9.68051 11.9066 9.70397 11.923L9.73245 11.9426L9.74147 11.9487L9.74463 11.9508L9.74586 11.9517L9.7464 11.952C9.74664 11.9522 9.74687 11.9523 10.25 11.1986M10.25 11.1986L10.7398 11.9611L10.2405 12.2818L9.74687 11.9523L10.25 11.1986Z" stroke="#C51918" stroke-width="1.8125"/>
<mask id="mask1_270_61007" style="mask-type:luminance" maskUnits="userSpaceOnUse" x="7" y="3" width="6" height="9">
<path d="M10.8322 9.50325C10.6328 9.7206 10.432 9.9066 10.2575 10.055C10.08 9.90103 9.87489 9.70799 9.67126 9.48348C9.09841 8.8519 8.65625 8.10386 8.65625 7.35478C8.65625 6.62113 9.08382 5.94478 9.64008 5.38979C9.85622 5.17415 10.0744 4.99468 10.258 4.85738C10.4387 4.98924 10.6523 5.1617 10.864 5.37025C11.4116 5.90974 11.8438 6.58595 11.8438 7.35478C11.8438 8.13848 11.3976 8.88699 10.8322 9.50325Z" fill="white"/>
<path d="M10.8322 9.50325C10.6328 9.7206 10.432 9.9066 10.2575 10.055C10.08 9.90103 9.87489 9.70799 9.67126 9.48348C9.09841 8.8519 8.65625 8.10386 8.65625 7.35478C8.65625 6.62113 9.08382 5.94478 9.64008 5.38979C9.85622 5.17415 10.0744 4.99468 10.258 4.85738C10.4387 4.98924 10.6523 5.1617 10.864 5.37025C11.4116 5.90974 11.8438 6.58595 11.8438 7.35478C11.8438 8.13848 11.3976 8.88699 10.8322 9.50325Z" stroke="white" stroke-width="1.8125"/>
</mask>
<g mask="url(#mask1_270_61007)">
<rect x="8.08334" y="8.75" width="4.66667" height="0.9375" fill="#91CBCB"/>
<path fill-rule="evenodd" clip-rule="evenodd" d="M8.50107 9.49871C8.50107 9.49871 11.8098 9.49989 12.114 9.38571C12.4181 9.27153 11.543 11.5779 10.425 11.5779C9.30699 11.5779 8.50107 9.49871 8.50107 9.49871Z" fill="#FDF9A1"/>
<path d="M11.621 9.22195L11.0266 9.67933C10.0898 8.46191 9.69684 7.2025 9.86456 5.91716L10.6083 6.0142C10.4678 7.09078 10.7997 8.15468 11.621 9.22195Z" fill="#A68861"/>
<path fill-rule="evenodd" clip-rule="evenodd" d="M10.246 6.02296L9.67895 6.68742C9.65767 6.71236 9.61725 6.69188 9.62476 6.65998L9.81982 5.8315H8.93274C8.8989 5.8315 8.8892 5.78522 8.92019 5.77163L9.6782 5.43932L9.14018 4.73001C9.12113 4.70489 9.14705 4.67056 9.17643 4.68201L10.0225 5.01182L10.2156 4.23467C10.2235 4.20304 10.2685 4.20306 10.2763 4.23471L10.4684 5.01182L11.3071 4.68527C11.3371 4.67359 11.363 4.70942 11.3426 4.73426L10.7616 5.43932L11.5633 5.77138C11.5948 5.78446 11.5855 5.8315 11.5513 5.8315H10.7616L10.8817 6.67909C10.8861 6.71007 10.8473 6.72756 10.827 6.70377L10.246 6.02296Z" fill="#239E46"/>
<path fill-rule="evenodd" clip-rule="evenodd" d="M9.75 8.125H12.75V8.78125H9.75V8.125Z" fill="#239E46"/>
<path fill-rule="evenodd" clip-rule="evenodd" d="M9.29501 7.74538H9.29201C9.28335 7.77754 9.26218 7.80428 9.22851 7.82561C9.19485 7.84694 9.15135 7.8576 9.09801 7.8576C9.05535 7.8576 9.01618 7.84989 8.98051 7.83447C8.94485 7.81905 8.91435 7.7964 8.88901 7.76655C8.86368 7.73669 8.84385 7.69961 8.82951 7.65531C8.81518 7.61101 8.80801 7.55999 8.80801 7.50224C8.80801 7.44515 8.81501 7.39445 8.82901 7.35015C8.84301 7.30586 8.86301 7.26878 8.88901 7.23892C8.91501 7.20906 8.94635 7.18626 8.98301 7.17051C9.01968 7.15476 9.06035 7.14688 9.10501 7.14688C9.16768 7.14688 9.22001 7.16066 9.26201 7.18822C9.30401 7.21579 9.33635 7.25221 9.35901 7.29749L9.29001 7.33883C9.27401 7.30208 9.25018 7.27321 9.21851 7.25221C9.18685 7.23121 9.14901 7.22071 9.10501 7.22071C9.07435 7.22071 9.04635 7.22612 9.02101 7.23695C8.99568 7.24778 8.97385 7.26304 8.95551 7.28272C8.93718 7.30241 8.92301 7.32604 8.91301 7.3536C8.90301 7.38116 8.89801 7.41201 8.89801 7.44613V7.55737C8.89801 7.59149 8.90301 7.6225 8.91301 7.65039C8.92301 7.67828 8.93718 7.70207 8.95551 7.72176C8.97385 7.74144 8.99635 7.7567 9.02301 7.76753C9.04968 7.77836 9.07968 7.78377 9.11301 7.78377C9.13701 7.78377 9.15985 7.78065 9.18151 7.77442C9.20318 7.76819 9.22218 7.75883 9.23851 7.74637C9.25485 7.7339 9.26768 7.71831 9.27701 7.69961C9.28635 7.6809 9.29101 7.65876 9.29101 7.63316V7.56524H9.13701V7.4924H9.37301V7.84579H9.29501V7.74538ZM9.81701 7.15869V7.58394C9.81701 7.64957 9.82935 7.69928 9.85401 7.73308C9.87868 7.76687 9.92201 7.78377 9.98401 7.78377C10.046 7.78377 10.0893 7.76687 10.114 7.73308C10.1387 7.69928 10.151 7.64957 10.151 7.58394V7.15869H10.235V7.56426C10.235 7.61413 10.2305 7.65744 10.2215 7.69419C10.2125 7.73094 10.198 7.76146 10.178 7.78574C10.158 7.81002 10.1318 7.82807 10.0995 7.83988C10.0672 7.85169 10.0277 7.8576 9.98101 7.8576C9.93435 7.8576 9.89518 7.85169 9.86351 7.83988C9.83185 7.82807 9.80635 7.81002 9.78701 7.78574C9.76768 7.76146 9.75385 7.73094 9.74551 7.69419C9.73718 7.65744 9.73301 7.61413 9.73301 7.56426V7.15869H9.81701ZM11.04 7.84579L10.97 7.64301H10.688L10.618 7.84579H10.533L10.777 7.15869H10.884L11.128 7.84579H11.04ZM10.831 7.23547H10.826L10.708 7.57016H10.949L10.831 7.23547ZM11.988 7.26697H11.983L11.924 7.38215L11.757 7.6814L11.59 7.38215L11.531 7.26697H11.526V7.84579H11.444V7.15869H11.556L11.756 7.52882H11.761L11.962 7.15869H12.07V7.84579H11.988V7.26697Z" fill="#C51918"/>
</g>
</g>
</g>
<defs>
<clipPath id="clip0_270_61007">
<rect width="20" height="15" fill="white"/>
</clipPath>
</defs>
</svg>

<svg width="24" height="24" viewbox="0 0 20 15" fill="none" xmlns="http://www.w3.org/2000/svg">
  <mask id="a" maskUnits="userSpaceOnUse" x="0" y="0" width="20" height="15">
    <path fill="#fff" d="M0 0h20v15H0z"/>
  </mask>
  <g mask="url(#a)">
    <path fill-rule="evenodd" clip-rule="evenodd" d="M0 0h20v15H0V0z" fill="#C51918"/>
    <path fill-rule="evenodd" clip-rule="evenodd" d="M2 2h16v11H2V2z" fill="#4564F9"/>
    <path d="M2.625 2.625h14.75v9.75H2.625v-9.75z" stroke="#CBDAFF" stroke-opacity=".12" stroke-width="1.25"/>
    <mask id="b" maskUnits="userSpaceOnUse" x="2" y="2" width="16" height="11">
      <path fill-rule="evenodd" clip-rule="evenodd" d="M2 2h16v11H2V2z" fill="#fff"/>
      <path d="M2.625 2.625h14.75v9.75H2.625v-9.75z" stroke="#fff" stroke-width="1.25"/>
    </mask>
    <g mask="url(#b)">
      <path opacity=".4" d="M10.25 3l.406-.81-.415-.208-.412.216.421.802zm0 0l.407-.81h0l.002.001.004.002.011.006.036.019c.03.016.072.038.123.067a9.147 9.147 0 011.655 1.201c.886.814 1.918 2.124 1.918 3.855 0 1.715-1.016 3.1-1.885 3.982a10.4 10.4 0 01-1.753 1.422l-.035.022-.011.007-.004.002h-.001v.001L10.25 12m0-9l-.422-.802h0-.002l-.003.003-.011.006-.036.02-.122.068a9.584 9.584 0 00-1.646 1.223c-.877.816-1.914 2.127-1.914 3.823 0 1.68 1.02 3.065 1.881 3.95a10.929 10.929 0 001.745 1.446l.035.022.01.007.004.002h.001v.001l.48-.769m0 0l.466.777-.475.285-.47-.292.479-.77z" fill="#CCE0E5" stroke="#6D87FB" stroke-width="1.813"/>
      <path d="M10.25 3.773l.43-.798-.44-.236-.434.244.444.79zm0 0l.43-.798.002.001.003.002.01.006.03.016.1.059a7.307 7.307 0 011.311 1.02c.702.692 1.52 1.807 1.52 3.276 0 1.454-.804 2.627-1.488 3.374a8.396 8.396 0 01-1.384 1.203l-.03.02-.009.005-.003.003h-.001c-.001 0-.001.001-.491-.761m0-7.426a127.9 127.9 0 00-.445-.79l-.002.002-.003.002-.01.005-.03.017a6.89 6.89 0 00-.425.278 7.667 7.667 0 00-.975.82c-.694.692-1.516 1.806-1.516 3.248 0 1.426.808 2.6 1.485 3.346a8.803 8.803 0 001.375 1.222l.028.02.01.006.003.002.001.001.504-.753m0 0l.49.762-.5.32-.493-.329.503-.753z" fill="#CCE0E5"/>
      <path d="M10.25 3.773l.43-.798-.44-.236-.434.244.444.79zm0 0l.43-.798h0l.002.001.003.002.01.006.03.016.1.059a7.307 7.307 0 011.311 1.02c.702.692 1.52 1.807 1.52 3.276 0 1.454-.804 2.627-1.488 3.374a8.396 8.396 0 01-1.384 1.203l-.03.02-.009.005-.003.003h-.001 0c-.001 0-.001.001-.491-.761m0-7.426a127.9 127.9 0 00-.445-.79h0l-.002.002-.003.002-.01.005-.03.017a6.89 6.89 0 00-.425.278 7.667 7.667 0 00-.975.82c-.694.692-1.516 1.806-1.516 3.248 0 1.426.808 2.6 1.485 3.346a8.803 8.803 0 001.375 1.222l.028.02.01.006.003.002h0l.001.001.504-.753m0 0l.49.762-.5.32-.493-.329.503-.753z" stroke="#C1C9F1" stroke-opacity=".748" stroke-width="1.813"/>
      <path d="M10.25 3.773l.43-.798-.44-.236-.434.244.444.79zm0 0l.43-.798h0l.002.001.003.002.01.006.03.016.1.059a7.307 7.307 0 011.311 1.02c.702.692 1.52 1.807 1.52 3.276 0 1.454-.804 2.627-1.488 3.374a8.396 8.396 0 01-1.384 1.203l-.03.02-.009.005-.003.003h-.001 0c-.001 0-.001.001-.491-.761m0-7.426a127.9 127.9 0 00-.445-.79h0l-.002.002-.003.002-.01.005-.03.017a6.89 6.89 0 00-.425.278 7.667 7.667 0 00-.975.82c-.694.692-1.516 1.806-1.516 3.248 0 1.426.808 2.6 1.485 3.346a8.803 8.803 0 001.375 1.222l.028.02.01.006.003.002h0l.001.001.504-.753m0 0l.49.762-.5.32-.493-.329.503-.753z" stroke="#C51918" stroke-width="1.813"/>
      <mask id="c" maskUnits="userSpaceOnUse" x="7" y="3" width="6" height="9">
        <path d="M10.832 9.503c-.2.218-.4.404-.575.552a6.903 6.903 0 01-.586-.572c-.573-.631-1.015-1.38-1.015-2.128 0-.734.428-1.41.984-1.965.216-.216.434-.395.618-.533.18.132.394.305.606.513.548.54.98 1.216.98 1.985 0 .783-.446 1.532-1.012 2.148z" fill="#fff"/>
        <path d="M10.832 9.503c-.2.218-.4.404-.575.552a6.903 6.903 0 01-.586-.572c-.573-.631-1.015-1.38-1.015-2.128 0-.734.428-1.41.984-1.965.216-.216.434-.395.618-.533.18.132.394.305.606.513.548.54.98 1.216.98 1.985 0 .783-.446 1.532-1.012 2.148z" stroke="#fff" stroke-width="1.813"/>
      </mask>
      <g mask="url(#c)">
        <path fill="#91CBCB" d="M8.083 8.75h4.667v.938H8.083z"/>
        <path fill-rule="evenodd" clip-rule="evenodd" d="M8.501 9.499s3.309 0 3.613-.113c.304-.114-.571 2.192-1.689 2.192s-1.924-2.08-1.924-2.08z" fill="#FDF9A1"/>
        <path d="M11.621 9.222l-.594.457c-.937-1.217-1.33-2.477-1.162-3.762l.743.097c-.14 1.077.192 2.14 1.013 3.208z" fill="#A68861"/>
        <path fill-rule="evenodd" clip-rule="evenodd" d="M10.246 6.023l-.567.664c-.021.025-.062.005-.054-.027l.195-.829h-.887c-.034 0-.044-.046-.013-.06l.758-.332-.538-.709c-.019-.025.007-.06.036-.048l.847.33.193-.777c.008-.032.053-.032.06 0l.192.777.84-.327c.03-.011.055.024.035.05l-.581.704.801.332c.032.013.022.06-.012.06h-.79l.12.848c.005.031-.034.049-.054.025l-.581-.681zM9.75 8.125h3v.656h-3v-.656z" fill="#239E46"/>
        <path fill-rule="evenodd" clip-rule="evenodd" d="M9.295 7.745h-.003a.137.137 0 01-.063.08.24.24 0 01-.131.033.293.293 0 01-.117-.024.247.247 0 01-.092-.067.324.324 0 01-.06-.112.497.497 0 01-.021-.153c0-.057.007-.108.021-.152a.309.309 0 01.06-.111.258.258 0 01.094-.068.306.306 0 01.122-.024.28.28 0 01.157.041.276.276 0 01.097.11l-.069.04a.194.194 0 00-.071-.086.2.2 0 00-.114-.031.212.212 0 00-.084.016.191.191 0 00-.108.117.27.27 0 00-.015.092v.111c0 .034.005.065.015.093a.187.187 0 00.11.117.247.247 0 00.159.007.17.17 0 00.057-.028.132.132 0 00.052-.113v-.068h-.154v-.073h.236v.354h-.078v-.1zm.522-.586v.425c0 .066.012.115.037.15.025.033.068.05.13.05s.105-.017.13-.05a.251.251 0 00.037-.15v-.425h.084v.405c0 .05-.005.093-.013.13a.226.226 0 01-.044.092.179.179 0 01-.079.054.347.347 0 01-.118.018.339.339 0 01-.117-.018.172.172 0 01-.077-.054.224.224 0 01-.041-.092.594.594 0 01-.013-.13V7.16h.084zm1.223.687l-.07-.203h-.282l-.07.203h-.085l.244-.687h.107l.244.687h-.088zm-.209-.61h-.005l-.118.334h.241l-.118-.335zm1.157.031h-.005l-.059.115-.167.3-.167-.3-.059-.115h-.005v.579h-.082v-.687h.112l.2.37h.005l.201-.37h.108v.687h-.082v-.579z" fill="#C51918"/>
      </g>
    </g>
  </g>
</svg>
